packages/natds-icons/svg/outlined-product-relatedproducts.svg

<svg width="24" height="24" viewBox="0 0 24 24" fill="none" xmlns="http://www.w3.org/2000/svg">
<path fill-rule="evenodd" clip-rule="evenodd" d="M4.93999 4C4.80738 4 4.6802 4.05268 4.58643 4.14645C4.49267 4.24021 4.43999 4.36739 4.43999 4.5V6.81H4.36999C4.25872 6.80943 4.15058 6.84675 4.06334 6.91581C3.9761 6.98487 3.91496 7.08157 3.88999 7.19L3.50999 8.69H2.50999C2.37738 8.69 2.2502 8.74268 2.15643 8.83645C2.06267 8.93021 2.00999 9.05739 2.00999 9.19C1.97373 11.2628 2.19544 13.332 2.66999 15.35C2.88935 16.5251 3.40186 17.6258 4.15999 18.55C4.464 18.8667 4.8811 19.0501 5.31999 19.06H7.64999C8.08888 19.0501 8.50597 18.8667 8.80999 18.55V18.55C9.33239 17.809 9.67479 16.9565 9.80999 16.06H8.80999C8.69501 16.717 8.43915 17.3413 8.05999 17.89C7.94448 18.0107 7.78691 18.0824 7.61999 18.09H5.30999C5.13445 18.0771 4.97021 17.9986 4.84999 17.87C4.22876 17.0719 3.81015 16.1352 3.62999 15.14C3.21096 13.3536 2.99956 11.5249 2.99999 9.69H9.46999C9.46999 9.8 9.46999 9.92 9.46999 10.03H10.47C10.47 9.76 10.47 9.48 10.47 9.19C10.4708 9.05954 10.4205 8.93393 10.33 8.84C10.2421 8.75128 10.1246 8.6979 9.99999 8.69H8.99999L8.62999 7.19C8.60159 7.08711 8.54221 6.99544 8.45991 6.92746C8.37762 6.85948 8.27639 6.81847 8.16999 6.81V4.5C8.16999 4.36739 8.11731 4.24021 8.02354 4.14645C7.92977 4.05268 7.8026 4 7.66999 4H4.93999ZM14.5 18.06V16H15.5V18H21.06V8.75H15.5V10H14.5V8.75C14.5 8.48478 14.6053 8.23043 14.7929 8.04289C14.9804 7.85536 15.2348 7.75 15.5 7.75H16.38V6.88H15.94C15.8074 6.88 15.6802 6.82732 15.5864 6.73355C15.4927 6.63979 15.44 6.51261 15.44 6.38V4.5C15.44 4.36739 15.4927 4.24021 15.5864 4.14645C15.6802 4.05268 15.8074 4 15.94 4H20.62C20.7526 4 20.8798 4.05268 20.9735 4.14645C21.0673 4.24021 21.12 4.36739 21.12 4.5V6.38C21.12 6.51261 21.0673 6.63979 20.9735 6.73355C20.8798 6.82732 20.7526 6.88 20.62 6.88H20.19V7.75H21.06C21.3252 7.75 21.5796 7.85536 21.7671 8.04289C21.9546 8.23043 22.06 8.48478 22.06 8.75V18.06C22.06 18.3252 21.9546 18.5796 21.7671 18.7671C21.5796 18.9546 21.3252 19.06 21.06 19.06H15.5C15.3687 19.06 15.2386 19.0341 15.1173 18.9839C14.996 18.9336 14.8857 18.86 14.7929 18.7671C14.7 18.6742 14.6264 18.564 14.5761 18.4427C14.5259 18.3214 14.5 18.1913 14.5 18.06ZM7.14999 6.81H5.43999V5H7.14999V6.81ZM4.53999 8.69H7.99999L7.77999 7.81H4.77999L4.53999 8.69ZM17.38 6.88H19.19V7.75H17.38V6.88ZM16.44 5V5.88H20.12V5H16.44ZM8.99999 13C8.99999 13.1978 8.94134 13.3911 8.83146 13.5556C8.72158 13.72 8.5654 13.8482 8.38267 13.9239C8.19995 13.9996 7.99888 14.0194 7.8049 13.9808C7.61092 13.9422 7.43273 13.847 7.29288 13.7071C7.15303 13.5673 7.05779 13.3891 7.0192 13.1951C6.98062 13.0011 7.00042 12.8 7.07611 12.6173C7.1518 12.4346 7.27997 12.2784 7.44442 12.1685C7.60887 12.0586 7.80221 12 7.99999 12C8.2652 12 8.51956 12.1054 8.70709 12.2929C8.89463 12.4804 8.99999 12.7348 8.99999 13ZM12 14C12.1978 14 12.3911 13.9414 12.5556 13.8315C12.72 13.7216 12.8482 13.5654 12.9239 13.3827C12.9996 13.2 13.0194 12.9989 12.9808 12.8049C12.9422 12.6109 12.8469 12.4327 12.7071 12.2929C12.5672 12.153 12.3891 12.0578 12.1951 12.0192C12.0011 11.9806 11.8 12.0004 11.6173 12.0761C11.4346 12.1518 11.2784 12.28 11.1685 12.4444C11.0586 12.6089 11 12.8022 11 13C11 13.2652 11.1053 13.5196 11.2929 13.7071C11.4804 13.8946 11.7348 14 12 14ZM16 14C16.1978 14 16.3911 13.9414 16.5556 13.8315C16.72 13.7216 16.8482 13.5654 16.9239 13.3827C16.9996 13.2 17.0194 12.9989 16.9808 12.8049C16.9422 12.6109 16.8469 12.4327 16.7071 12.2929C16.5672 12.153 16.3891 12.0578 16.1951 12.0192C16.0011 11.9806 15.8 12.0004 15.6173 12.0761C15.4346 12.1518 15.2784 12.28 15.1685 12.4444C15.0586 12.6089 15 12.8022 15 13C15 13.2652 15.1053 13.5196 15.2929 13.7071C15.4804 13.8946 15.7348 14 16 14Z" fill="black"/>
</svg>

<svg xmlns="http://www.w3.org/2000/svg" width="24" height="24" viewBox="0 0 24 24">
  <g id="Create-Here">
    <g>
      <rect id="Bounds" width="24" height="24" style="fill: none"/>
      <path d="M4.94,4a.5.5,0,0,0-.5.5V6.81H4.37a.49.49,0,0,0-.48.38l-.38,1.5h-1a.5.5,0,0,0-.5.5,25,25,0,0,0,.66,6.16,7.1,7.1,0,0,0,1.49,3.2,1.66,1.66,0,0,0,1.16.51H7.65a1.66,1.66,0,0,0,1.16-.51l0,0a5.83,5.83,0,0,0,1-2.49h-1a4.62,4.62,0,0,1-.75,1.83.65.65,0,0,1-.44.2H5.31a.7.7,0,0,1-.46-.22,6.26,6.26,0,0,1-1.22-2.73A23.84,23.84,0,0,1,3,9.69H9.47c0,.11,0,.23,0,.34h1c0-.27,0-.55,0-.84a.5.5,0,0,0-.14-.35A.51.51,0,0,0,10,8.69H9l-.37-1.5a.52.52,0,0,0-.46-.38V4.5a.5.5,0,0,0-.5-.5ZM14.5,18.06V16h1v2h5.56V8.75H15.5V10h-1V8.75a1,1,0,0,1,1-1h.88V6.88h-.44a.5.5,0,0,1-.5-.5V4.5a.5.5,0,0,1,.5-.5h4.68a.5.5,0,0,1,.5.5V6.38a.5.5,0,0,1-.5.5h-.43v.87h.87a1,1,0,0,1,1,1v9.31a1,1,0,0,1-1,1H15.5A1,1,0,0,1,14.5,18.06ZM7.15,6.81H5.44V5H7.15ZM4.54,8.69H8l-.22-.88h-3ZM17.38,6.88h1.81v.87H17.38ZM16.44,5v.88h3.68V5ZM9,13a1,1,0,1,1-1-1A1,1,0,0,1,9,13Zm3,1a1,1,0,1,0-1-1A1,1,0,0,0,12,14Zm4,0a1,1,0,1,0-1-1A1,1,0,0,0,16,14Z" style="fill-rule: evenodd"/>
    </g>
  </g>
</svg>
